icons/src/fluent/svg/cart_24_filled.svg

<svg width="24" height="24" viewBox="0 0 24 24" fill="none" xmlns="http://www.w3.org/2000/svg">
<path d="M2.5 4.25C2.5 3.83579 2.83579 3.5 3.25 3.5H3.80826C4.75873 3.5 5.32782 4.13899 5.65325 4.73299C5.87016 5.12894 6.02708 5.58818 6.14982 6.00395C6.18306 6.00134 6.21674 6 6.2508 6H18.7481C19.5783 6 20.1778 6.79442 19.9502 7.5928L18.1224 14.0019C17.7856 15.1832 16.7062 15.9978 15.4779 15.9978H9.52977C8.29128 15.9978 7.2056 15.1699 6.87783 13.9756L6.11734 11.2045L4.85874 6.95578L4.8567 6.94834C4.701 6.38051 4.55487 5.85005 4.33773 5.4537C4.12686 5.0688 3.95877 5 3.80826 5H3.25C2.83579 5 2.5 4.66421 2.5 4.25ZM9 21C10.1046 21 11 20.1046 11 19C11 17.8954 10.1046 17 9 17C7.89543 17 7 17.8954 7 19C7 20.1046 7.89543 21 9 21ZM16 21C17.1046 21 18 20.1046 18 19C18 17.8954 17.1046 17 16 17C14.8954 17 14 17.8954 14 19C14 20.1046 14.8954 21 16 21Z" fill="#212121"/>
</svg>

<svg width="24" height="24" fill="none" viewBox="0 0 24 24" xmlns="http://www.w3.org/2000/svg"><path d="M2.5 4.25a.75.75 0 0 1 .75-.75h.558c.95 0 1.52.639 1.845 1.233.217.396.374.855.497 1.271A1.29 1.29 0 0 1 6.25 6h12.498c.83 0 1.43.794 1.202 1.593l-1.828 6.409a2.75 2.75 0 0 1-2.644 1.996H9.53a2.75 2.75 0 0 1-2.652-2.022l-.76-2.772-1.26-4.248-.001-.008c-.156-.567-.302-1.098-.52-1.494C4.128 5.069 3.96 5 3.809 5H3.25a.75.75 0 0 1-.75-.75ZM9 21a2 2 0 1 0 0-4 2 2 0 0 0 0 4ZM16 21a2 2 0 1 0 0-4 2 2 0 0 0 0 4Z" fill="#212121"/></svg>
